X:1
T:Title
%%score { ( 1 2 ) | ( 3 4 ) }
L:1/8
Q:1/4=116
M:3/4
K:Ab
V:1 treble nm="Grand Piano"
V:2 treble 
V:3 bass 
V:4 bass 
V:1
 [Aca]6 | [Gcg]6 | [Fcf]6- | [Fcf]2 z2 z2 | [F=df]2 [Gdg]2 [Ada]2 | [cec']4 [Bdb]2 | [Aca]2 GA ce | %7
w: Samuel~W.~Beazley|||||||
 [ca]6 | [Ac]6 | [Gc]6 | [Fc]6- | [Fc]2 z2 z2 | [Ec]2 [Fc]2 [Gc]2 | [Ac]4 z2 | [Ad]6 | [Gd]6 | %16
w: |||||||||
 [Bd]6 | [Ad]4 z2 | [Gd]6- | [Gd]2 z2 z2 | [Bd]4 z2 | [Bd]4 z2 | [_c=d]6 | [ce]6 | [Ac]4 z2 | %25
w: |||||||||
 [Gc]4 z2 | [Fc]6- | [Fc]2 z2 z2 | [Ec]2 [Fc]2 [Gc]2 | [Ac]2 [Bd]2 [ce]2 | [e_g]6 | [df]6 | [Af]6 | %33
w: ||||||||
 [Bf]4 z2 | [ce]4 z2 | [df]2 [ce]2 [Bd]2 | [F=d]6 | [Gd]6 | A2- [GA]2 ce | [Ac]6 | %40
w: |||||||
 [CE]2 [CF]2 [CG]2 | [CA]2 [DB]2 [Ec]2 | [Ee]6 | e4 z2 | f2 e2 c2 | [CA]2 [CF]2 [CA]2 | G6- | G6 | %48
w: ||||||||
 E2 G2 A2 | B2 c2 d2 | [Gf]6 | [Gf]6 | [DGB]2 [EGc]2 [DGB]2 | G2 F2 E2 | e6- | e6 | %56
w: ||||||||
 [CE]2 [CF]2 [CG]2 | [CA]2 [DB]2 [Ec]2 | [Ee]6 | e6 | f2 e2 c2 | A2 B2 c2 | d6- | d6 | %64
w: ||||||||
 [Af]2 [Af]2 [Af]2 | [Ae]2 [A=d]2 [Ae]2 | [Af]2 [Af]2 [Af]2 | [Ae]2 [A=d]2 [Ae]2 | %68
w: ||||
 [Gf]2 [Gf]2 [Gf]2 | [Ge]2 [Ge]4 | [CEA]6- | [CEA]6 |] %72
w: ||||
V:2
 z2 [A,C]2 [A,C]2 | z2 [A,C]2 [A,C]2 | z2 [A,C]2 [A,C]2 | z2 [Ece]2 [Ac]2 | x6 | x6 | x6 | x6 | %8
 z2 [A,C]2 [A,C]2 | z2 [A,C]2 [A,C]2 | z2 [A,C]2 [A,C]2 | z2 c2 _c2 | x6 | z2 [A,C]2 [Bc]2 | %14
 z2 [G,B,D]2 [G,B,D]2 | z2 [G,B,D]2 [G,B,D]2 | z2 [G,B,D]2 [G,B,D]2 | z2 [G,B,D]2 [DAd]2 | %18
 z2 [G,B,D]2 [G,B,D]2 | z2 [DFd]2 [DEd]2 | z2 [G,B,D]2 [D=Ad]2 | z2 [G,B,D]2 [_c=d]2 | %22
 z2 [A,_C=D]2 [A,CD]2 | z2 [A,C]2 [A,C]2 | z2 [A,C]2 [Ac]2 | z2 [A,C]2 [Gc]2 | z2 [A,C]2 [A,C]2 | %27
 z2 c2 _c2 | x6 | x6 | z2 C2 C2 | z2 D2 D2 | z2 D2 D2 | z2 =D2 [_cf]2 | z2 C2 [Ac]2 | x6 | %36
 z2 [A,B,=D]2 [A,B,D]2 | z2 [B,D]2 [B,D]2 | c2 z A3 | x6 | x6 | x6 | z2 C2 C2 | z2 C2 e2 | x6 | %45
 x6 | D4 D2 | D6 | x6 | x6 | z2 D2 D2 | z2 D2 D2 | x6 | x6 | z2 z2 _G2 | [DG]6 | x6 | x6 | %58
 z2 C2 C2 | z2 C2 C2 | x6 | x6 | F4 F2 | F6 | x6 | x6 | x6 | x6 | x6 | x6 | x6 | x6 |] %72
V:3
 A,,2 E,2 E,2 | E,,2 E,2 E,2 | A,,2 E,2 E,2 | E,,2 [E,A,C]2 [E,A,C]2 | %4
 [B,,,B,,]2 [F,A,B,=D]2 [F,A,B,D]2 | [E,,E,]2 [F,,F,]2 [G,,G,]2 | [A,,A,]2 [E,A,C]2 [E,A,C]2 | %7
 [A,,A,]6 | A,,2 E,2 E,2 | E,,2 E,2 E,2 | A,,2 E,2 E,2 | E,,2 [E,A,CE]2 [E,A,C=D]2 | %12
 A,,2 [E,A,C]2 [E,A,C]2 | E,,2 E,2 [E,A,C]2 | B,,2 E,2 E,2 | E,,2 E,2 E,2 | G,,2 E,2 E,2 | %17
 E,,2 E,2 [E,G,B,]2 | B,,2 E,2 E,2 | E,,2 [E,G,B,]2 [E,G,B,]2 | G,,2 E,2 [E,G,B,]2 | %21
 E,,2 E,2 [E,G,B,D]2 | A,,2 F,2 F,2 | A,,2 E,2 E,2 | A,,2 E,2 [E,A,C]2 | E,,2 E,2 [E,A,C]2 | %26
 A,,2 E,2 E,2 | E,,2 [E,A,CE]2 [E,A,C=D]2 | A,,2 [E,A,C]2 [E,A,C]2 | A,,2 [E,A,C]2 [E,A,C]2 | %30
 [C,,C,]2 [E,A,]2 [E,A,]2 | [D,,D,]2 [F,A,]2 [F,A,]2 | [D,,D,]2 [F,A,]2 [F,A,]2 | %33
 [=D,,=D,]2 [F,A,]2 [F,A,=D]2 | [F,,E,]2 [E,A,]2 [E,A,C]2 | F2 E2 D2 | B,,2 F,2 F,2 | %37
 [E,,E,]2 [E,G,]2 [E,G,]2 | [A,,A,]2 [E,A,C]2 [E,A,C]2 | [A,,A,]6 | [A,,A,]2 [A,,A,]2 [A,,A,]2 | %41
 [A,,A,]2 [A,,A,]2 [A,,A,]2 | [A,C]2 A,2 A,2 | A4 z2 | [A,DA]2 [A,CA]2[K:bass] [A,E]2 | %45
 [A,,A,]2 [A,,A,]2 [A,,E,]2 | [B,,E,]4 [B,,E,]2 | [E,B,]6 | [E,G,D]2 [E,B,D]2 [E,A,D]2 | %49
 [E,G,D]2 [E,G,E]2 [E,G,E]2 | [E,D]2 E,2 E,2 | [F,D]2 E,2 E,2 | E,2 E,2 E,2 | %53
 [E,B,D]2 [F,A,D]2 [G,B,]2 | [A,CE]4 [=A,C]2 | B,4 E,2 | [A,,A,]2 [A,,A,]2 [A,,A,]2 | %57
 [A,,A,]2 [A,,A,]2 [A,,A,]2 | [A,C]2 A,2 A,2 | A6 | [A,C_G]2 [A,CG]2 [A,EG]2 | %61
 [A,C_G]2 [A,DG]2 [A,EG]2 | [D,D]4 [D,A,]2 | [D,A,]6 | [=D,_C]2 [D,C]2 [D,C]2 | %65
 [E,C]2 [=E,_C]2 [_E,=C]2 | [=D,_C]2 [D,C]2 [D,C]2 | [E,C]2 [=E,_C]2 [_E,=C]2 | %68
 [E,D]2 [E,D]2 [E,D]2 | [E,D]2 [E,D]4 | [A,,A,]6- | [A,,A,]6 |] %72
V:4
 x6 | x6 | x6 | x6 | x6 | x6 | x6 | x6 | x6 | x6 | x6 | x6 | x6 | x6 | x6 | x6 | x6 | x6 | x6 | %19
 x6 | x6 | x6 | x6 | x6 | x6 | x6 | x6 | x6 | x6 | x6 | x6 | x6 | x6 | x6 | x6 | x6 | x6 | x6 | %38
 x6 | x6 | x6 | x6 | x6 | [A,C]2 A,2 [A,CA]2 | x4[K:bass] x2 | x6 | x6 | x6 | x6 | x6 | x6 | x6 | %52
 x6 | x6 | x6 | x6 | x6 | x6 | x6 | [A,C]2 A,2 A,2 | x6 | x6 | x6 | x6 | x6 | x6 | x6 | x6 | x6 | %69
 x6 | x6 | x6 |] %72

